X:130 
T:Miss Butler's (reel)
S:McDermott MS
F:file ID: cre.4/130miss_b
L:1/8
B:CRE4.153 (Ril Inion de Buitleir)
Q:180
M:4/4
R:reel
K:G
BG~G2 Bdgd|BGBG FGAc|BG~G2 Bdgd|cBAc BG G2:|
dg g2 dgbg|agbg ea~a2|dg g2 dgba|gedc BG G2|
dg g2 dgbg|agbg ea~a2|bg (3efg dgbg|eaaf gedc||\
"last time" BGG2-G4|]

%%%
